src/assets/images/components/page/PageHeader/menu-dropdown-company-icon-blog.svg

<svg fill="none" height="28" viewBox="0 0 30 28" width="30" xmlns="http://www.w3.org/2000/svg"><path d="m1.65234 27.0433h2.1832c1.05234 0 1.65023-.6096 1.65023-1.6524v-19.4238c0-1.05445-.59789-1.66195-1.65023-1.66195h-2.1832c-1.064062 0-1.65234.6075-1.65234 1.66195v19.4238c0 1.0428.588278 1.6524 1.65234 1.6524zm6.88006 0h4.5204c1.0619 0 1.6502-.6096 1.6502-1.6524v-15.2843c0-1.04481-.5883-1.65231-1.6502-1.65231h-4.5204c-1.06406 0-1.66195.6075-1.66195 1.65231v15.2843c0 1.0428.59789 1.6524 1.66195 1.6524zm1.04367-14.2219c-.4514 0-.79523-.3417-.79523-.7814 0-.4343.34172-.776.79523-.776h2.46493c.465 0 .7739.3417.7739.776 0 .4397-.3321.7814-.7739.7814zm0 11.4218c-.45351 0-.79523-.3417-.79523-.7835 0-.4322.34383-.776.79523-.776h2.46493c.4418 0 .7739.3438.7739.776 0 .4418-.3321.7835-.7739.7835zm8.17363 2.8001h2.7257c1.0641 0 1.6524-.6096 1.6524-1.6524v-22.72896c0-1.05444-.5883-1.66194-1.6524-1.66194h-2.7257c-1.0641 0-1.6524.6075-1.6524 1.66194v22.72896c0 1.0428.5883 1.6524 1.6524 1.6524zm8.1227.0628 1.7728-.2421c1.0427-.1235 1.5598-.7831 1.448-1.8354l-2.1371-19.11447c-.1139-1.04484-.7638-1.58858-1.8236-1.45757l-1.7632.24422c-1.0524.12352-1.5694.78304-1.4555 1.82366l2.1445 19.11656c.1139 1.0427.7639 1.5886 1.8141 1.4651z" fill="#000"/></svg>

<svg width="30" height="28" viewBox="0 0 30 28" fill="none" xmlns="http://www.w3.org/2000/svg">
<path d="M1.65234 27.0433H3.83554C4.88788 27.0433 5.48577 26.4337 5.48577 25.3909V5.9671C5.48577 4.91265 4.88788 4.30515 3.83554 4.30515H1.65234C0.588278 4.30515 0 4.91265 0 5.9671V25.3909C0 26.4337 0.588278 27.0433 1.65234 27.0433ZM8.5324 27.0433H13.0528C14.1147 27.0433 14.703 26.4337 14.703 25.3909V10.1066C14.703 9.06179 14.1147 8.45429 13.0528 8.45429H8.5324C7.46834 8.45429 6.87045 9.06179 6.87045 10.1066V25.3909C6.87045 26.4337 7.46834 27.0433 8.5324 27.0433ZM9.57607 12.8214C9.12467 12.8214 8.78084 12.4797 8.78084 12.04C8.78084 11.6057 9.12256 11.264 9.57607 11.264H12.041C12.506 11.264 12.8149 11.6057 12.8149 12.04C12.8149 12.4797 12.4828 12.8214 12.041 12.8214H9.57607ZM9.57607 24.2432C9.12256 24.2432 8.78084 23.9015 8.78084 23.4597C8.78084 23.0275 9.12467 22.6837 9.57607 22.6837H12.041C12.4828 22.6837 12.8149 23.0275 12.8149 23.4597C12.8149 23.9015 12.4828 24.2432 12.041 24.2432H9.57607ZM17.7497 27.0433H20.4754C21.5395 27.0433 22.1278 26.4337 22.1278 25.3909V2.66194C22.1278 1.6075 21.5395 1 20.4754 1H17.7497C16.6856 1 16.0973 1.6075 16.0973 2.66194V25.3909C16.0973 26.4337 16.6856 27.0433 17.7497 27.0433ZM25.8724 27.1061L27.6452 26.864C28.6879 26.7405 29.205 26.0809 29.0932 25.0286L26.9561 5.91413C26.8422 4.86929 26.1923 4.32555 25.1325 4.45656L23.3693 4.70078C22.3169 4.8243 21.7999 5.48382 21.9138 6.52444L24.0583 25.641C24.1722 26.6837 24.8222 27.2296 25.8724 27.1061Z" fill="black"/>
</svg>
